proprietary/assets/icons/navigatie/route-met-vlag.svg

<svg height="64" viewBox="0 0 64 64" width="64" xmlns="http://www.w3.org/2000/svg"><path d="m0 0h64v64h-64z" fill="none"/><path d="m9.0441 41.79c0-2.2349 1.2085-4.3062 3.1538-5.4058l15.5779-8.8301c2.6055-1.4721 4.2242-4.246 4.2242-7.2387 0-4.5849-3.7305-8.3154-8.3154-8.3154h-7.9892c-.8245-2.3289-3.0399-4-5.6512-4-3.3137 0-6 2.6863-6 6s2.6863 6 6 6c2.6113 0 4.8267-1.6711 5.6512-4h7.9892c2.3794 0 4.3154 1.936 4.3154 4.3154 0 1.5532-.8398 2.9922-2.1924 3.7563l-15.5779 8.8301c-3.1988 1.8082-5.1856 5.2139-5.1856 8.8882 0 5.6299 4.5801 10.21 10.21 10.21h17.7459v-4h-17.7459c-3.4243 0-6.21-2.7856-6.21-6.21zm.9559-24.79c-1.6569 0-3-1.3431-3-3s1.3431-3 3-3 3 1.3431 3 3-1.3431 3-3 3z"/><path d="m60.74 33.4208-22.7401-8.3701v-1.1729c0-.4094-.6715-.8779-1.5-.8779-.8283.0001-1.4999.4686-1.4999.878v33.1221h3v-15.9848c.0562-.0209.2623-.0673.3641.2499l1.1566 5.8116 21.3125-12.0551c.5828-.334.5225-1.3711-.0932-1.6008z"/></svg>

<?xml version="1.0" encoding="utf-8"?>
<!-- Generator: Adobe Illustrator 19.1.0, SVG Export Plug-In . SVG Version: 6.00 Build 0)  -->
<svg version="1.2" baseProfile="tiny" xmlns="http://www.w3.org/2000/svg" xmlns:xlink="http://www.w3.org/1999/xlink" x="0px"
	 y="0px" width="64px" height="64px" viewBox="0 0 64 64" xml:space="preserve">
<g id="Box">
	<rect fill="none" width="64" height="64"/>
</g>
<g id="Icon">
	<g>
		<path d="M9.0441,41.79c0-2.2349,1.2085-4.3062,3.1538-5.4058l15.5779-8.8301C30.3813,26.082,32,23.3081,32,20.3154
			C32,15.7305,28.2695,12,23.6846,12h-7.9892c-0.8245-2.3289-3.0399-4-5.6512-4c-3.3137,0-6,2.6863-6,6s2.6863,6,6,6
			c2.6113,0,4.8267-1.6711,5.6512-4h7.9892C26.064,16,28,17.936,28,20.3154c0,1.5532-0.8398,2.9922-2.1924,3.7563l-15.5779,8.8301
			C7.0309,34.71,5.0441,38.1157,5.0441,41.79c0,5.6299,4.5801,10.21,10.21,10.21H33v-4H15.2541
			C11.8298,48,9.0441,45.2144,9.0441,41.79z M10,17c-1.6569,0-3-1.3431-3-3s1.3431-3,3-3s3,1.3431,3,3S11.6569,17,10,17z"/>
		<path d="M60.74,33.4208l-22.7401-8.3701v-1.1729c0-0.4094-0.6715-0.8779-1.5-0.8779C35.6716,23,35,23.4685,35,23.8779V57h3
			V41.0152c0.0562-0.0209,0.2623-0.0673,0.3641,0.2499l1.1566,5.8116l21.3125-12.0551C61.416,34.6876,61.3557,33.6505,60.74,33.4208
			z"/>
	</g>
</g>
</svg>
